svg/color/op.svg

<svg width="64" height="65" viewBox="0 0 64 65" fill="none" xmlns="http://www.w3.org/2000/svg">
<g clip-path="url(#clip0_11313_5316)">
<rect y="0.303711" width="64" height="64" rx="32" fill="white"/>
<path d="M32.0002 64.3037C49.6734 64.3037 64.0002 49.9768 64.0002 32.3037C64.0002 14.6306 49.6734 0.303711 32.0002 0.303711C14.3271 0.303711 0.000244141 14.6306 0.000244141 32.3037C0.000244141 49.9768 14.3271 64.3037 32.0002 64.3037Z" fill="#FF0420"/>
<path d="M22.6683 40.8028C20.7611 40.8028 19.1995 40.3548 17.9835 39.4588C16.7803 38.55 16.1787 37.2444 16.1787 35.5676C16.1787 35.2092 16.2171 34.7868 16.2939 34.2748C16.4987 33.1228 16.7931 31.7404 17.1771 30.1148C18.2651 25.7116 21.0811 23.51 25.6123 23.51C26.8411 23.51 27.9547 23.7148 28.9275 24.1372C29.9003 24.534 30.6683 25.1484 31.2315 25.9676C31.7947 26.774 32.0763 27.734 32.0763 28.8476C32.0763 29.1804 32.0379 29.6028 31.9611 30.1148C31.7179 31.5356 31.4363 32.9308 31.0907 34.2748C30.5275 36.4636 29.5675 38.1148 28.1851 39.2028C26.8155 40.278 24.9723 40.8028 22.6683 40.8028ZM23.0139 37.3468C23.9099 37.3468 24.6651 37.078 25.2923 36.5532C25.9323 36.0284 26.3931 35.222 26.6619 34.1212C27.0331 32.6108 27.3147 31.3052 27.5067 30.1788C27.5707 29.846 27.6091 29.5004 27.6091 29.142C27.6091 27.6828 26.8539 26.9532 25.3307 26.9532C24.4347 26.9532 23.6667 27.222 23.0267 27.7468C22.3995 28.2716 21.9515 29.078 21.6827 30.1788C21.3883 31.254 21.1067 32.5596 20.8123 34.1212C20.7483 34.4412 20.7099 34.774 20.7099 35.1324C20.6971 36.6172 21.4779 37.3468 23.0139 37.3468Z" fill="white"/>
<path d="M33.1903 40.5727C33.0111 40.5727 32.8831 40.5215 32.7807 40.4063C32.7039 40.2783 32.6783 40.1375 32.7039 39.9711L36.0191 24.3551C36.0447 24.1759 36.1343 24.0351 36.2879 23.9199C36.4287 23.8047 36.5823 23.7535 36.7487 23.7535H43.1359C44.9151 23.7535 46.3359 24.1247 47.4111 24.8543C48.4991 25.5967 49.0495 26.6591 49.0495 28.0543C49.0495 28.4511 48.9983 28.8735 48.9087 29.3087C48.5119 31.1519 47.7055 32.5087 46.4767 33.3919C45.2735 34.2751 43.6223 34.7103 41.5231 34.7103H38.2847L37.1839 39.9711C37.1455 40.1503 37.0687 40.2911 36.9151 40.4063C36.7743 40.5215 36.6207 40.5727 36.4543 40.5727H33.1903ZM41.6895 31.3951C42.3679 31.3951 42.9439 31.2159 43.4431 30.8447C43.9551 30.4735 44.2879 29.9487 44.4543 29.2575C44.5055 28.9887 44.5311 28.7455 44.5311 28.5407C44.5311 28.0799 44.3903 27.7215 44.1215 27.4783C43.8527 27.2223 43.3791 27.0943 42.7263 27.0943H39.8463L38.9375 31.3951H41.6895Z" fill="white"/>
</g>
<rect x="0.5" y="0.803711" width="63" height="63" rx="31.5" stroke="#070B14" stroke-opacity="0.15"/>
<defs>
<clipPath id="clip0_11313_5316">
<rect y="0.303711" width="64" height="64" rx="32" fill="white"/>
</clipPath>
</defs>
</svg>

<svg xmlns="http://www.w3.org/2000/svg" width="64" height="65" fill="none" viewBox="0 0 64 65"><g clip-path="url(#op_svg-a)"><rect width="64" height="64" y=".304" fill="#fff" rx="32"/><path fill="#FF0420" d="M32 64.304c17.673 0 32-14.327 32-32s-14.327-32-32-32-32 14.327-32 32 14.327 32 32 32"/><path fill="#fff" d="M22.668 40.803q-2.86 0-4.684-1.344c-1.204-.909-1.805-2.215-1.805-3.891 0-.359.038-.781.115-1.293.205-1.152.5-2.535.883-4.16 1.088-4.403 3.904-6.605 8.435-6.605 1.23 0 2.343.205 3.316.627.972.397 1.74 1.011 2.303 1.83q.845 1.21.845 2.88 0 .5-.115 1.268a52 52 0 0 1-.87 4.16c-.564 2.189-1.524 3.84-2.906 4.928-1.37 1.075-3.213 1.6-5.517 1.6m.346-3.456c.896 0 1.651-.269 2.278-.794.64-.525 1.101-1.331 1.37-2.432.371-1.51.653-2.816.845-3.942.064-.333.102-.679.102-1.037 0-1.46-.755-2.189-2.278-2.189-.896 0-1.664.269-2.304.794-.628.525-1.076 1.331-1.344 2.432-.295 1.075-.576 2.38-.87 3.942-.065.32-.103.653-.103 1.011-.013 1.485.768 2.215 2.304 2.215m10.176 3.226c-.179 0-.307-.051-.41-.167-.076-.128-.102-.268-.076-.435l3.315-15.616a.64.64 0 0 1 .269-.435.7.7 0 0 1 .46-.167h6.388c1.78 0 3.2.372 4.275 1.101 1.088.743 1.639 1.805 1.639 3.2 0 .397-.052.82-.141 1.255-.397 1.843-1.203 3.2-2.432 4.083-1.203.883-2.855 1.318-4.954 1.318h-3.238l-1.101 5.261a.7.7 0 0 1-.269.435.7.7 0 0 1-.46.167zm8.5-9.178c.678 0 1.254-.18 1.753-.55.512-.371.845-.896 1.011-1.587.051-.27.077-.512.077-.717 0-.461-.14-.82-.41-1.063-.268-.256-.742-.384-1.395-.384h-2.88l-.908 4.301z"/></g><rect width="63" height="63" x=".5" y=".804" stroke="#070B14" stroke-opacity=".15" rx="31.5"/><defs><clipPath id="op_svg-a"><rect width="64" height="64" y=".304" fill="#fff" rx="32"/></clipPath></defs></svg>
